Papirus/48x48/places/folder-blue-obsidian.svg

<svg width="48" height="48" version="1" xmlns="http://www.w3.org/2000/svg">
    <rect style="opacity:.2" width="40" height="26" x="4" y="17" rx="2" ry="2"/>
    <path style="fill:#4877b1" d="M4 34c0 1.108.892 2 2 2h36c1.108 0 2-.892 2-2V12c0-1.108-.892-2-2-2H24c-3 0-4-4-7-4H6c-1.108 0-2 .892-2 2"/>
    <rect style="opacity:.2" width="40" height="26" x="4" y="15" rx="2" ry="2"/>
    <rect style="fill:#e4e4e4" width="36" height="16" x="6" y="13" rx="2" ry="2"/>
    <rect style="fill:#5294e2" width="40" height="26" x="4" y="16" rx="2" ry="2"/>
    <path style="opacity:.1;fill:#fff" d="M6 6c-1.108 0-2 .892-2 2v1c0-1.108.892-2 2-2h11c3 0 4 4 7 4h18c1.108 0 2 .892 2 2v-1c0-1.108-.892-2-2-2H24c-3 0-4-4-7-4Z"/>
    <path style="fill:#1d344f;fill-opacity:1;stroke-width:.1" d="M29.511 33.903a51.663 51.663 0 0 0 1.392-2.214.609.609 0 0 0-.045-.676c-.387-.513-1.128-1.555-1.53-2.52-.415-.993-.477-2.534-.48-3.285a1.281 1.281 0 0 0-.269-.788l-2.396-3.047a2.808 2.808 0 0 1-.057.409c-.08.377-.23.752-.402 1.124-.1.217-.216.45-.334.686a43.433 43.433 0 0 0-.232.469c-.387.801-.748 1.67-.848 2.692-.094.947.034 2.048.61 3.363.096.008.193.02.29.033.826.116 1.693.44 2.492 1.13.686.591 1.306 1.44 1.81 2.624zm-8.359 3.024c.054.009.109.014.164.015.586.018 1.57.069 2.369.216.651.12 1.942.482 3.005.793.81.237 1.646-.411 1.764-1.249.086-.61.247-1.301.543-1.934l-.006.002c-.503-1.402-1.142-2.307-1.812-2.885a3.967 3.967 0 0 0-2.08-.943c-1.155-.162-2.213.141-2.88.337.4 1.664.277 3.621-1.067 5.648zm.84-6.418c.462-.137 1.204-.348 2.058-.4-.512-1.294-.636-2.427-.537-3.435.115-1.164.525-2.135.925-2.962a43.168 43.168 0 0 1 .246-.498c.111-.223.216-.433.314-.645.163-.352.284-.664.345-.953a1.57 1.57 0 0 0-.01-.783c-.072-.244-.223-.506-.51-.794a1.197 1.197 0 0 0-1.106.27l-3.709 3.339a1.202 1.202 0 0 0-.384.714l-.32 2.122c.503.445 1.744 1.738 2.5 3.533a8.508 8.508 0 0 1 .189.492zm-2.838-3.056a1.203 1.203 0 0 1-.073.218l-1.96 4.373a1.202 1.202 0 0 0 .233 1.329l3.085 3.18c1.576-2.327 1.346-4.515.626-6.226-.545-1.297-1.372-2.312-1.91-2.874z"/>
</svg>

<svg xmlns="http://www.w3.org/2000/svg" width="48" height="48" version="1">
 <rect style="opacity:0.2" width="40" height="26" x="4" y="17" rx="2" ry="2"/>
 <path style="fill:#4877b1" d="M 4,34 C 4,35.108 4.892,36 6,36 H 42 C 43.108,36 44,35.108 44,34 V 12 C 44,10.892 43.108,10 42,10 H 24 C 21,10 20,6 17,6 H 6 C 4.892,6 4,6.892 4,8"/>
 <rect style="opacity:0.2" width="40" height="26" x="4" y="15" rx="2" ry="2"/>
 <rect style="fill:#e4e4e4" width="36" height="16" x="6" y="13" rx="2" ry="2"/>
 <rect style="fill:#5294e2" width="40" height="26" x="4" y="16" rx="2" ry="2"/>
 <path style="opacity:0.1;fill:#ffffff" d="M 6,6 C 4.892,6 4,6.892 4,8 V 9 C 4,7.892 4.892,7 6,7 H 17 C 20,7 21,11 24,11 H 42 C 43.108,11 44,11.892 44,13 V 12 C 44,10.892 43.108,10 42,10 H 24 C 21,10 20,6 17,6 Z"/>
 <path style="fill:#1d344f" d="M 24.03,20 C 23.73,20 23.44,20.11 23.22,20.31 L 20.01,23.65 C 19.82,23.85 19.66,24.09 19.62,24.36 L 19.3,26.48 C 19.81,26.93 20.71,28.1 21.4,29.92 L 21.59,30.41 C 21.59,30.41 22.7,30.06 23.55,30.01 23.04,28.72 22.91,27.68 23.01,26.67 23.13,25.51 23.53,24.54 23.94,23.71 24.31,23.04 24.6,22.34 24.84,21.61 24.95,21.17 24.84,20.18 24.32,20.04 24.23,20.01 24.13,20 24.03,20 Z M 25.88,21.37 C 25.87,21.51 25.86,21.65 25.83,21.78 25.63,22.59 25.22,23.32 24.86,24.06 24.47,24.86 24.11,25.73 24.01,26.75 23.92,27.7 24.04,28.7 24.62,30.02 25.44,30.08 26.76,30.37 27.7,31.18 28.39,31.77 29.01,32.62 29.51,33.8 29.51,33.8 30.18,32.91 30.9,31.69 31.02,31.48 31.01,31.21 30.86,31.01 30.47,30.5 29.73,29.46 29.33,28.49 28.91,27.5 28.85,25.96 28.85,25.21 28.85,24.92 28.75,24.64 28.58,24.42 Z M 19.04,27.73 C 18.43,29.18 17.76,30.61 17.12,32.05 16.92,32.49 17.04,33 17.35,33.37 L 19.86,36.34 19.93,36.26 C 21.4,34.08 21.18,32.12 20.5,30.52 20.126,29.525 19.66,28.587 19.04,27.73 Z M 24.19,30.9 C 23.27,30.92 22.32,31.13 21.82,31.28 22.22,32.94 22.1,34.9 20.75,36.93 20.75,36.93 22.56,36.95 23.69,37.16 24.34,37.28 25.63,37.64 26.69,37.95 27.5,38.19 28.34,37.54 28.45,36.7 28.54,36.09 28.99,34.77 28.99,34.77 28.99,34.77 27.85,32.46 27.18,31.89 26.59,31.37 25.87,31.05 25.1,30.94 24.81,30.9 24.5,30.89 24.19,30.9 Z"/>
</svg>
